X:1
T:Title
%%score { ( 1 3 ) | ( 2 4 ) }
L:1/8
M:6/4
K:Db
V:1 treble nm="Grand Piano"
V:3 treble 
V:2 bass 
V:4 bass 
V:1
 z6 z4[Q:1/4=162] [FA]2 | [FA]2 [DF]2 [EG]2 [FA]2 [Fd]2 [GB]2 | [FA]2 D2 G2 F4 F2 | %3
 [DF]2 [CE]2 [_C=D]2 [=CE]2 [CA]2 [CE]2 | [DF]6- [DF]4 [FA]2 | %5
 [FA]2 [DF]2 [EG]2 [FA]2 [Fd]2 [GB]2 |[M:5/4] [FA]2 D2 G2 F4 |[M:1/4] F2 |[M:6/4] E2 A2 c2 c4 B2 | %9
 A4- [DA-]2 [EA-]2 [FA-]2 [GA]2 | [DFA]2 .[A,DF]4 d2- [Gd-]2 [Ad]2 | [Bd]2 c2 [GB]2 [FA]6 | %12
 [DGB]2 [DGB]2 [DGB]2 [D=GB]2 [CGc]2 [Gd]2 |[M:7/4] [CGe]2- [CGe]2- [CGe]2- [CGe]6 [CA]2 | %14
[M:6/4] [Af]2 [Ge]2 [Fd]2 [FA]4 [FA]2 |[M:7/4] B2 =A2 B2 d6 d2 |[M:6/4] d2 F2 A2 [CGB]4 [CA]2 | %17
[M:5/4] D2- D2- D6 |] %18
V:2
 z6 z4 [D,D]2 | [D,D]2 [D,A,]2 [D,A,]2 [D,D]2 [D,D]2 [D,D]2 | %2
 [D,D]2 [D,F,]2 [D,B,D]2 [D,A,D]4 [D,A,D]2 | %3
 [A,,A,]2 [A,,G,]2 [A,,F,]2 [A,,G,]2 [A,,E,]2 [A,,A,]2 | [D,A,]6- [D,A,]4 [D,D]2 | %5
 [D,D]2 [D,A,]2 [D,A,]2 [D,D]2 [D,D]2 [D,D]2 |[M:5/4] [D,D]2 [D,F,]2 [D,B,D]2 [D,A,D]4 | %7
[M:1/4] [D,A,D]2 |[M:6/4] [E,A,C]2 [E,A,C]2 [E,A,E]2 [E,=G,E]4 [E,G,D]2 | z4 B,2 C2 D2 E2 | %10
 D,2 D,2 A2 [D,A,]2 [E,A,]2 [F,D]2 | D2- [D-A]2 [G,D-]2 [D,D]6 | G,2 G,2 G,2 E,2 E,2 [E,B,]2 | %13
[M:7/4] A,,2 C,2 E,2 A,6 A,2 |[M:6/4] [D,D]2 [D,A,]2 [D,A,]2 [D,D]4 [D,D]2 | %15
[M:7/4] [G,DG]2 [G,CG]2 [G,DG]2 [G,B,G]6 [G,B,_F]2 | %16
[M:6/4][K:treble] [A,F]2 [A,D]2 [A,F]2[K:bass] A,,4 [A,,G,]2 |[M:5/4] [D,F,]2- [D,F,]2- [D,F,]6 |] %18
V:3
 x12 | x12 | x12 | x12 | x12 | x12 |[M:5/4] x10 |[M:1/4] x2 |[M:6/4] x12 | .[A,C]6 z6 | z6 .F6 | %11
 x12 | x12 |[M:7/4] x14 |[M:6/4] x12 |[M:7/4] x14 |[M:6/4] x12 |[M:5/4] x10 |] %18
V:4
 x12 | x12 | x12 | x12 | x12 | x12 |[M:5/4] x10 |[M:1/4] x2 |[M:6/4] x12 | A,,12 | x12 | .G,6 z6 | %12
 x12 |[M:7/4] x14 |[M:6/4] x12 |[M:7/4] x14 |[M:6/4][K:treble] x6[K:bass] x6 |[M:5/4] x10 |] %18

